tools/download-figma-icons/icons/outlined-medium/slider.svg

<svg width="24" height="24" viewBox="0 0 24 24" fill="none" xmlns="http://www.w3.org/2000/svg">
<path fill-rule="evenodd" clip-rule="evenodd" d="M4.5 3.75C4.5 3.33579 4.83579 3 5.25 3C5.66421 3 6 3.33579 6 3.75V5.37803C6.87389 5.68691 7.5 6.52034 7.5 7.5C7.5 8.47966 6.87389 9.31309 6 9.62197V20.25C6 20.6642 5.66421 21 5.25 21C4.83579 21 4.5 20.6642 4.5 20.25V9.62197C3.62611 9.31309 3 8.47966 3 7.5C3 6.52034 3.62611 5.68691 4.5 5.37803V3.75ZM5.25 8.25C5.66421 8.25 6 7.91421 6 7.5C6 7.08579 5.66421 6.75 5.25 6.75C4.83579 6.75 4.5 7.08579 4.5 7.5C4.5 7.91421 4.83579 8.25 5.25 8.25ZM11.25 3.75C11.25 3.33579 11.5858 3 12 3C12.4142 3 12.75 3.33579 12.75 3.75V14.378C13.6239 14.6869 14.25 15.5203 14.25 16.5C14.25 17.4797 13.6239 18.3131 12.75 18.622V20.25C12.75 20.6642 12.4142 21 12 21C11.5858 21 11.25 20.6642 11.25 20.25V18.622C10.3761 18.3131 9.75 17.4797 9.75 16.5C9.75 15.5203 10.3761 14.6869 11.25 14.378V3.75ZM12 17.25C12.4142 17.25 12.75 16.9142 12.75 16.5C12.75 16.0858 12.4142 15.75 12 15.75C11.5858 15.75 11.25 16.0858 11.25 16.5C11.25 16.9142 11.5858 17.25 12 17.25ZM18.75 3C18.3358 3 18 3.33579 18 3.75V9.87803C17.1261 10.1869 16.5 11.0203 16.5 12C16.5 12.9797 17.1261 13.8131 18 14.122V20.25C18 20.6642 18.3358 21 18.75 21C19.1642 21 19.5 20.6642 19.5 20.25V14.122C20.3739 13.8131 21 12.9797 21 12C21 11.0203 20.3739 10.1869 19.5 9.87803V3.75C19.5 3.33579 19.1642 3 18.75 3ZM19.5 12C19.5 12.4142 19.1642 12.75 18.75 12.75C18.3358 12.75 18 12.4142 18 12C18 11.5858 18.3358 11.25 18.75 11.25C19.1642 11.25 19.5 11.5858 19.5 12Z" fill="black"/>
</svg>

<svg xmlns="http://www.w3.org/2000/svg" width="24" height="24" fill="none" viewBox="0 0 24 24"><path fill="currentColor" fill-rule="evenodd" d="M4.5 3.75a.75.75 0 0 1 1.5 0v1.628a2.25 2.25 0 0 1 0 4.244V20.25a.75.75 0 0 1-1.5 0V9.622a2.25 2.25 0 0 1 0-4.244zm.75 4.5a.75.75 0 1 0 0-1.5.75.75 0 0 0 0 1.5m6-4.5a.75.75 0 0 1 1.5 0v10.628a2.251 2.251 0 0 1 0 4.244v1.628a.75.75 0 0 1-1.5 0v-1.628a2.251 2.251 0 0 1 0-4.244zm.75 13.5a.75.75 0 1 0 0-1.5.75.75 0 0 0 0 1.5M18.75 3a.75.75 0 0 0-.75.75v6.128a2.25 2.25 0 0 0 0 4.244v6.128a.75.75 0 0 0 1.5 0v-6.128a2.251 2.251 0 0 0 0-4.244V3.75a.75.75 0 0 0-.75-.75m.75 9a.75.75 0 1 1-1.5 0 .75.75 0 0 1 1.5 0" clip-rule="evenodd"/></svg>
